images/icon/pdf.svg

<svg width="36" height="35" viewBox="0 0 36 35" fill="none" xmlns="http://www.w3.org/2000/svg">
<g clip-path="url(#clip0)">
<path d="M19.2 33.299H4.60002C3.90002 33.299 3.40002 32.699 3.40002 32.099V1.89897C3.40002 1.19897 4.00002 0.698975 4.60002 0.698975H21" stroke="#C5BABA" stroke-width="1.4397" stroke-miterlimit="22.9256" stroke-linecap="round" stroke-linejoin="round"/>
<path d="M29 8.69897V18.899" stroke="#C5BABA" stroke-width="1.4397" stroke-miterlimit="22.9256" stroke-linecap="round" stroke-linejoin="round"/>
<path d="M29 8.69897H22.2C21.5 8.69897 21 8.09897 21 7.49897V0.698975L29 8.69897Z" stroke="#C5BABA" stroke-width="1.4397" stroke-miterlimit="22.9256" stroke-linecap="round" stroke-linejoin="round"/>
<path d="M34.7 31.499V33.399H23.2V31.499" stroke="#E60000" stroke-width="1.4397" stroke-miterlimit="22.9256" stroke-linecap="round" stroke-linejoin="round"/>
<path d="M24.6 27.399L28.9 30.999L33.2 27.399" stroke="#E60000" stroke-width="1.4397" stroke-miterlimit="22.9256" stroke-linecap="round" stroke-linejoin="round"/>
<path d="M28.9 30.999V22.999" stroke="#E60000" stroke-width="1.4397" stroke-miterlimit="22.9256" stroke-linecap="round" stroke-linejoin="round"/>
<path d="M17.4 19.399H1.8C0.8 19.399 0 18.599 0 17.599V12.299C0 11.299 0.8 10.499 1.8 10.499H17.4C18.4 10.499 19.2 11.299 19.2 12.299V17.599C19.2 18.599 18.3 19.399 17.4 19.399Z" fill="#E60000"/>
<path d="M2 17.899V12.099H3.9C4.6 12.099 5.1 12.099 5.3 12.199C5.6 12.299 5.9 12.499 6.1 12.799C6.3 13.099 6.4 13.499 6.4 13.899C6.4 14.299 6.3 14.599 6.2 14.799C6.1 14.999 5.9 15.199 5.7 15.399C5.5 15.499 5.3 15.599 5.1 15.699C4.8 15.799 4.4 15.799 3.9 15.799H3.2V17.999H2V17.899ZM3.2 13.099V14.699H3.8C4.3 14.699 4.6 14.699 4.7 14.599C4.8 14.499 5 14.399 5.1 14.299C5.2 14.199 5.2 13.999 5.2 13.899C5.2 13.699 5.1 13.499 5 13.399C4.9 13.299 4.7 13.199 4.5 13.099C4.4 13.099 4.1 13.099 3.7 13.099H3.2Z" fill="white"/>
<path d="M7.40002 12.099H9.50002C10 12.099 10.3 12.099 10.6 12.199C10.9 12.299 11.2 12.499 11.5 12.699C11.8 12.899 11.9 13.299 12.1 13.599C12.2 13.999 12.3 14.399 12.3 14.999C12.3 15.499 12.2 15.899 12.1 16.199C12 16.599 11.7 16.999 11.5 17.199C11.3 17.399 11 17.599 10.7 17.699C10.4 17.799 10.1 17.799 9.70002 17.799H7.40002V12.099ZM8.50002 13.099V16.899H9.40002C9.70002 16.899 10 16.899 10.1 16.799C10.3 16.799 10.4 16.699 10.6 16.599C10.8 16.499 10.8 16.299 10.9 15.999C11 15.799 11 15.399 11 14.999C11 14.599 11 14.199 10.9 13.999C10.8 13.799 10.7 13.599 10.6 13.399C10.5 13.199 10.3 13.199 10.1 13.099C9.90002 13.099 9.60002 12.999 9.10002 12.999H8.50002V13.099Z" fill="white"/>
<path d="M13.2 17.899V12.099H17.2V13.099H14.4V14.499H16.8V15.499H14.4V17.999H13.2V17.899Z" fill="white"/>
</g>
<defs>
<clipPath id="clip0">
<rect width="35.4" height="34.1" fill="white" transform="translate(0 -0.000976562)"/>
</clipPath>
</defs>
</svg>

<svg width="36" height="35" fill="none" xmlns="http://www.w3.org/2000/svg"><g clip-path="url(#clip0)"><path d="M19.2 33.299H4.6c-.7 0-1.2-.6-1.2-1.2v-30.2c0-.7.6-1.2 1.2-1.2H21m8 8v10.2m0-10.2h-6.8c-.7 0-1.2-.6-1.2-1.2v-6.8l8 8z" stroke="#C5BABA" stroke-width="1.44" stroke-miterlimit="22.926" stroke-linecap="round" stroke-linejoin="round"/><path d="M34.7 31.499v1.9H23.2v-1.9m1.4-4.1l4.3 3.6 4.3-3.6m-4.3 3.6v-8" stroke="#E60000" stroke-width="1.44" stroke-miterlimit="22.926" stroke-linecap="round" stroke-linejoin="round"/><path d="M17.4 19.399H1.8c-1 0-1.8-.8-1.8-1.8v-5.3c0-1 .8-1.8 1.8-1.8h15.6c1 0 1.8.8 1.8 1.8v5.3c0 1-.9 1.8-1.8 1.8z" fill="#E60000"/><path d="M2 17.899v-5.8h1.9c.7 0 1.2 0 1.4.1.3.1.6.3.8.6.2.3.3.7.3 1.1 0 .4-.1.7-.2.9-.1.2-.3.4-.5.6l-.6.3c-.3.1-.7.1-1.2.1h-.7v2.2H2v-.1zm1.2-4.8v1.6h.6c.5 0 .8 0 .9-.1.1-.1.3-.2.4-.3.1-.1.1-.3.1-.4 0-.2-.1-.4-.2-.5-.1-.1-.3-.2-.5-.3H3.2zm4.2-1h2.1c.5 0 .8 0 1.1.1.3.1.6.3.9.5.3.2.4.6.6.9.1.4.2.8.2 1.4 0 .5-.1.9-.2 1.2-.1.4-.4.8-.6 1-.2.2-.5.4-.8.5-.3.1-.6.1-1 .1H7.4v-5.7zm1.1 1v3.8h.9c.3 0 .6 0 .7-.1.2 0 .3-.1.5-.2s.2-.3.3-.6c.1-.2.1-.6.1-1s0-.8-.1-1l-.3-.6c-.1-.2-.3-.2-.5-.3-.2 0-.5-.1-1-.1h-.6v.1zm4.7 4.8v-5.8h4v1h-2.8v1.4h2.4v1h-2.4v2.5h-1.2v-.1z" fill="#fff"/></g><defs><clipPath id="clip0"><path fill="#fff" transform="translate(0 -.001)" d="M0 0h35.4v34.1H0z"/></clipPath></defs></svg>
